X: 604
T: mon pre avait un gars lonla
M: 3/4
L: 1/8
R: hanter dro
K: Amin
|:"Am"AB/c/ BA G/F/E|"Am/G"AB/c/ Ad cB|"Am/F"AB/c/ BA G/F/E|"Am/E"AB/c/ AG A2:|
|:"Am"AB/c/ dB c/d/e|cB/A/ dc "E"B2|"F"AB/c/ dB c/d/e|"Dm"cB/A/ "E"Bc "Am"A2:|
